X:171
T: Schner Meie (2-73) S. 219
N: P0946
O: Lothringen
S: PINCK, Louis: Verklingende Weisen, Bd 2, Metz 1928]
R: Fenstergang]
M: 4/4
L: 1/16
K: G
D2 | G4A4B4B2G2 | A4A4G4z2
A2 | B3A2Bc2d4d4 | c4d2e2d4z2
d2 | g2d2d2c2B6e2 | e2d2c2B2A4
d4 | G4A4B2c2d2c2 | B4A4G4z2

@@@ Tune index: 7721
